X:1
T:Title
%%score ( 1 2 ) 3
L:1/8
Q:1/4=102
M:6/8
K:G
V:1 treble nm="Violin, Soprano"
V:2 treble 
V:3 bass nm="French Horn, Bass"
V:1
 [B,G] [B,G]2 [B,G] [DB]2 | [DB] [=Fd]2- [Fd] [Ec]2 | [DB] [B,G]2 [B,G]GF | [B,G] A2- A F2 | %4
w: By~Anonymous * * *||||
 [CD] [B,G]2 [B,G] [DB]2 | [DB] [=Fd]2 [Fd] [Ec]2 | [DB] [B,G]2 [B,G] [CA]2 | %7
w: |||
 [CD] [B,G]2- [B,G]2- [B,G]/ z/ | [B,G] [CA]2 [DB] [CA]2 | [DB] [CA]2 [CA] [CF]2 | %10
w: |||
 [CD] [B,G]2 [FA] [GB]2 | [Gc] [Fd]2- [Fd]2- [Fd]/ z/ | [B,G] [CA]2 [DB] [CA]2 | %13
w: |||
 [DB] [CA]2 [CA] [CF]2 | [CD] [B,G]2 [FA] [GB]2 | [Gc] [Fd]2- [Fd]2- [Fd]/ z/ | %16
w: |||
 [Gd] [Ge]2 [Ge] [ce]2 | [ce] [Bd]2 [GB] [Ec]2 | [CA] [B,G]2- [B,G] [B,D]2 | %19
w: |||
 [B,G] [CA]2- [CA] [CD]2 | [CA] [B,B]2 [DB] [CA]2 | [CD] [B,G]2- [B,G]3- | [B,G]3 z3 |] %23
w: ||||
V:2
 x6 | x6 | z3 z B,2 | z C2- C2- C/ z/ | x6 | x6 | x6 | x6 | x6 | x6 | x6 | x6 | x6 | x6 | x6 | x6 | %16
 x6 | x6 | x6 | x6 | x6 | x6 | x6 |] %23
V:3
 G, G,2 G, G,2 | G, G,2- G, G,2 | G, G,2 G, E,2 | E, D,2- D,2- D,/ z/ | D, G,2 G, G,2 | %5
 G, G,2 G, G,2 | G, G,2 E, D,2 | D, G,,2- G,,2- G,,/ z/ | G, D,2 D, D,2 | D, D,2 D, D,2 | %10
 D, G,,2 D, G,2 | E, D,2- D,2- D,/ z/ | G, D,2 D, D,2 | D, D,2 D, D,2 | D, G,,2 D, G,2 | %15
 E, D,2- D,2- D,/ z/ | B,, C,2 D, E,2 | F, G,2 G,, A,,2 | C, D,2- D, D,2 | D, D,2- D, D,2 | %20
 D, G,,2 A,, D,2 | D, G,,2- G,,3- | G,,3 z3 |] %23

